icons/car-outline.svg

<svg xmlns="http://www.w3.org/2000/svg" width="24" height="24" viewBox="0 0 24 24">
  <path d="M16.5584816,4 C17.8497728,4 18.9961893,4.82629028 19.4045315,6.0513167 L19.4045315,6.0513167 L20.9486833,10.6837722 C20.9518851,10.6933776 20.9549333,10.7029875 20.9578296,10.7125999 C20.9653486,10.7368 20.9718339,10.761908 20.9773488,10.7873774 C20.9808155,10.8032014 20.9839402,10.8192053 20.9866623,10.8351893 C20.995363,10.8886711 21,10.943794 21,11 L20.9953293,10.8981248 C20.9976707,10.9203582 20.9992453,10.9425259 21.0000736,10.9645996 L21,11 L21,18 C21,18.0775014 20.9911835,18.1529436 20.9744988,18.2253784 C20.9914159,18.3146843 21,18.4063397 21,18.5 L21,19.5 C21,20.3284271 20.3284271,21 19.5,21 C18.6715729,21 18,20.3284271 18,19.5 L18,19 L6,19 L6,19.5 C6,20.3284271 5.32842712,21 4.5,21 C3.67157288,21 3,20.3284271 3,19.5 L3,18.5 C3,18.4063397 3.00858412,18.3146843 3.02500852,18.2257777 C3.00881647,18.1529436 3,18.0775014 3,18 L3,18 L3,11 C3,10.9912336 3.0001128,10.9824935 3.00033704,10.9737811 C3.00030251,10.9489376 3.00201697,10.9230773 3.00477614,10.8971282 C3.00736249,10.8762269 3.01014382,10.8555044 3.01354942,10.8349929 C3.0219179,10.784806 3.03449916,10.7342249 3.0513167,10.6837722 L3.02265122,10.7873774 C3.02816615,10.761908 3.03465137,10.7368 3.04206625,10.7120941 L3.0513167,10.6837722 L4.59546855,6.0513167 C5.00381069,4.82629028 6.15022722,4 7.44151844,4 L7.44151844,4 Z M19,12 L5,12 L5,17 L19,17 L19,12 Z M7.5,13 C8.32842712,13 9,13.6715729 9,14.5 C9,15.3284271 8.32842712,16 7.5,16 C6.67157288,16 6,15.3284271 6,14.5 C6,13.6715729 6.67157288,13 7.5,13 Z M16.5,13 C17.3284271,13 18,13.6715729 18,14.5 C18,15.3284271 17.3284271,16 16.5,16 C15.6715729,16 15,15.3284271 15,14.5 C15,13.6715729 15.6715729,13 16.5,13 Z M16.5584816,6 L7.44151844,6 C7.01108803,6 6.62894919,6.27543009 6.49283514,6.68377223 L6.49283514,6.68377223 L5.387,10 L18.612,10 L17.5071649,6.68377223 C17.3834248,6.31255211 17.0563585,6.05117665 16.6745258,6.00672177 L16.6745258,6.00672177 L16.5584816,6 Z"/>
</svg>

<svg xmlns="http://www.w3.org/2000/svg" viewBox="0 0 24 24">
  <path d="M16.56 4a3 3 0 0 1 2.84 2.05l1.55 4.63A1.04 1.04 0 0 1 21 11v-.1V18a1 1 0 0 1-.03.23c.02.08.03.18.03.27v1a1.5 1.5 0 0 1-3 0V19H6v.5a1.5 1.5 0 0 1-3 0v-1c0-.1 0-.19.03-.27A1.04 1.04 0 0 1 3 18v-7a1.02 1.02 0 0 1 .05-.32l-.03.1a1 1 0 0 1 .02-.07l.01-.03L4.6 6.05A3 3 0 0 1 7.44 4zM19 12H5v5h14v-5zM7.5 13a1.5 1.5 0 1 1 0 3 1.5 1.5 0 0 1 0-3zm9 0a1.5 1.5 0 1 1 0 3 1.5 1.5 0 0 1 0-3zm.06-7H7.44a1 1 0 0 0-.95.68L5.4 10h13.2l-1.1-3.32a1 1 0 0 0-.84-.67l-.1-.01z"/>
</svg>
